icons/delighted-logo.svg

<?xml version="1.0" encoding="UTF-8"?>
<svg width="512px" height="174px" viewBox="0 0 512 174" version="1.1" xmlns="http://www.w3.org/2000/svg" xmlns:xlink="http://www.w3.org/1999/xlink" preserveAspectRatio="xMidYMid">
    <g>
        <path d="M21.5483655,97.8047675 C25.6365126,91.719796 30.8261578,82.7291412 33.5333221,75.8452437 C48.6035696,82.0779618 65.4329257,86.1327853 81.1169431,88.6280615 C73.2749344,98.0564839 60.336442,106.253685 47.0965448,106.253685 C37.5173475,106.253685 28.6779625,103.112701 21.5483655,97.8047675 L21.5483655,97.8047675 Z M65.1644013,22.1913363 C80.3442505,28.7469081 90.9591847,43.8280064 90.9591847,61.3824924 C90.9591847,68.9066252 89.0137527,75.976574 85.5886965,82.1107943 C69.2635086,80.2448094 51.2340127,76.3322603 36.0760839,68.8135995 C41.8575788,52.3754213 49.9187911,28.7469081 65.1644013,22.1913363 L65.1644013,22.1913363 Z M33.6593642,21.1625821 C38.1804384,19.5373695 43.1070393,18.7001387 48.1925628,18.7001387 C49.9845521,18.7001387 51.7546212,18.8095806 53.4863296,19.0224452 C39.5559411,26.7824254 31.2864853,46.465557 24.5459747,61.8913973 C4.52720613,46.8704921 12.1554913,28.5116079 33.6593642,21.1625821 L33.6593642,21.1625821 Z M319.637857,30.3994812 C327.551108,9.29360459 341.969225,10.0432818 341.585618,17.3808162 C341.12529,23.6140814 331.40909,29.0314571 319.637857,30.3994812 L319.637857,30.3994812 Z M279.370157,91.0084235 C276.367067,97.2137811 267.982529,101.80487 262.403798,105.421926 L283.134979,54.3344319 C283.551465,53.3056777 282.987016,52.4793911 281.880038,52.4793911 L270.612974,52.4793911 C269.505995,52.4793911 268.272975,53.3056777 267.856487,54.3289598 L265.390448,60.3865707 C264.36567,55.3248814 259.285627,50.4164107 251.865586,50.4164107 C234.340258,50.4164107 223.237595,77.503289 219.971462,94.4394281 C218.902844,100.382125 207.898824,108.447996 203.772316,108.447996 C201.289835,108.447996 198.933396,106.21538 204.397047,92.5734431 L220.026262,54.230462 C220.44275,53.20718 219.88378,52.3803462 218.776802,52.3803462 L207.509737,52.3803462 C206.40276,52.3803462 205.169739,53.2121049 204.753252,54.2359342 C204.753252,54.2359342 191.23935,88.8141127 187.995137,96.9401762 C185.227692,103.884266 177.391163,108.447996 173.686622,108.447996 C171.204142,108.447996 168.842223,106.21538 174.305873,92.5734431 L204.895735,18.3280361 C205.306742,17.3047541 204.747772,16.4784675 203.640794,16.4784675 L192.373729,16.4784675 C191.26675,16.4784675 190.033731,17.3047541 189.622724,18.3335082 L160.435765,89.2628246 C157.180591,97.6296603 140.707441,108.447996 130.23499,108.447996 C116.26624,108.447996 119.34605,95.0796634 120.233825,92.0262334 L127.653866,92.0262334 C141.529455,92.3053104 150.072915,87.4296722 155.196799,76.4526465 C162.649721,60.5835662 154.577548,50.4164107 141.787019,50.4164107 C125.198787,50.4164107 113.24123,66.5974005 107.991304,82.088906 C107.865262,82.4719528 107.73922,82.8385832 107.624138,83.2052137 C105.2951,83.1286043 102.790699,83.0465229 100.976789,82.9589693 C103.711354,76.3048999 105.218379,69.0215392 105.218379,61.3824924 C105.218379,29.9507694 79.6866396,4.47268746 48.1925628,4.47268746 C39.0901334,4.47268746 30.4918722,6.60133304 22.858107,10.3820046 L22.8745473,10.3989681 C-3.80253057,23.0942323 -10.4937204,51.9267093 20.9619959,69.8423538 C16.5724438,78.9698109 10.5224245,86.0671202 4.46692515,94.0563813 C3.6723121,95.1070239 3.52434967,96.2233315 4.26964191,97.3505835 C6.18219329,100.228906 10.5553051,104.447892 13.8269188,106.828255 L13.843359,106.839199 L14.8297753,107.545099 C24.2116892,114.308611 35.7363184,118.292298 48.1925628,118.292298 C69.0991059,118.292298 87.3806859,107.063555 97.3106089,90.3189393 C99.4040032,90.4995184 102.571495,90.6308488 105.744467,90.7238745 C105.2677,93.361425 105.026575,95.8731174 105.026575,98.1549817 C105.026575,110.926855 112.353456,117.996804 126.508528,117.996804 C138.79489,117.996804 148.796053,112.563012 156.676424,105.099072 C156.517501,114.461829 161.96471,117.996804 169.094307,117.996804 C175.484091,117.996804 181.49027,114.625993 187.101882,109.175784 C188.400664,115.507 193.201223,117.996804 199.180001,117.996804 C206.375358,117.996804 213.082988,113.728568 219.297411,107.02525 C220.46467,113.290801 224.613098,117.996804 231.375529,117.996804 C240.072432,117.996804 245.536082,109.438445 245.536082,109.438445 L243.56325,116.065154 C227.051738,130.670179 199.897893,137.01234 198.911477,156.049764 C197.809978,177.396412 230.438434,182.605849 242.626153,152.383459 L256.666144,118.522125 C261.718787,114.839405 267.867448,110.866662 273.933908,105.580617 L269.412833,116.535755 C268.996347,117.553565 269.549835,118.385323 270.656814,118.385323 L281.923879,118.385323 C283.030857,118.385323 284.263878,117.553565 284.685844,116.530282 L302.934543,71.9928877 C308.398194,65.7930022 314.360531,62.9420398 317.588304,62.9420398 C319.577576,62.9420398 321.068161,63.9324894 321.068161,65.667144 C321.068161,67.5276568 312.869946,87.9878262 312.869946,87.9878262 C303.92644,109.936405 309.642173,117.996804 320.695515,117.996804 C326.48797,117.996804 331.902299,115.381141 336.993302,110.99252 C338.796252,115.972129 343.289926,117.996804 349.02758,117.996804 C356.453101,117.996804 363.336095,114.007645 369.545037,107.878898 C372.553606,114.461829 379.146154,117.996804 389.158279,117.996804 C401.050074,117.996804 410.799154,112.89681 418.564441,105.804973 C419.342614,112.705286 423.518442,117.996804 431.091927,117.996804 C441.399976,117.996804 449.225545,107.950035 449.225545,107.950035 C449.225545,107.950035 450.19004,115.178674 461.643428,117.996804 C503.549676,128.29529 536.786422,67.9982571 487.147767,43.8006459 L497.510617,18.3335082 C497.921624,17.3102261 497.362654,16.4784675 496.255676,16.4784675 L484.983131,16.4784675 C483.881634,16.4784675 482.648613,17.3102261 482.237606,18.3335082 L473.918829,38.8648148 C452.343716,32.8509805 420.356431,32.2435778 374.953886,41.4202839 L384.335799,18.3335082 C384.746806,17.3102261 384.182357,16.4784675 383.080859,16.4784675 L371.808314,16.4784675 C370.701335,16.4784675 369.473796,17.3102261 369.062789,18.3335082 L359.494551,42.5475358 L359.494551,42.7773639 L359.40139,42.7773639 L358.497175,45.0428118 C354.600832,45.9675961 350.616806,46.9580457 346.5451,48.013613 C345.476482,48.2932372 344.259901,49.3110472 343.837935,50.32831 C343.251565,51.7570744 342.287069,52.5888331 341.7007,54.0115782 C341.284213,55.0348602 342.813158,55.6532071 343.887255,55.4014907 C347.690438,54.4384017 351.405939,53.5355058 355.039239,52.6873308 C346.890345,73.0490024 337.711194,96.6720435 336.20965,100.256267 C333.831291,105.257763 328.477242,108.447996 325.534434,108.447996 C323.550642,108.447996 320.322869,107.085443 326.159164,92.5734431 L333.233961,75.2159526 C335.842483,68.7698228 337.212506,63.9324894 337.212506,60.3373219 C337.212506,54.0115782 332.866794,50.4164107 326.531811,50.4164107 C316.722449,50.4164107 308.398194,58.6026673 308.398194,58.6026673 L316.799172,38.8921752 C334.620423,37.9942042 351.356619,31.90978 353.351371,17.8793242 C353.31849,-3.45638055 319.76938,-9.39907749 308.913322,20.8178401 L305.406065,29.8079477 C294.500685,28.8180453 284.505001,25.2502384 277.024678,21.0312519 C275.967021,20.4402654 274.739481,20.867089 274.279154,21.9833967 L273.100934,23.8548537 C272.640606,24.9711614 272.958452,26.5799579 273.895547,27.3405792 C278.498822,31.0834934 289.015115,35.5596684 302.128971,37.4037649 L302.15089,37.4037649 L279.370157,91.0084235 L279.370157,91.0084235 Z M237.836555,105.597033 C235.10199,105.597033 233.737448,103.982765 233.737448,100.633841 C233.737448,91.4571354 244.045497,63.1882842 255.098838,63.1882842 C261.055696,63.1882842 261.055696,71.3745408 261.055696,71.3745408 L251.49294,94.9319168 C251.49294,94.9319168 244.911352,105.597033 237.836555,105.597033 L237.836555,105.597033 Z M227.13394,152.383459 C220.700314,163.546536 210.545707,162.961022 209.597652,158.052552 C207.926224,149.38475 219.86186,141.800424 238.559927,130.133915 C234.970468,138.385836 232.131782,143.715658 227.13394,152.383459 L227.13394,152.383459 Z M403.559955,62.8161816 C407.785104,62.8161816 407.911146,66.2854909 404.929977,72.8574789 C401.948808,79.429467 397.477055,85.3831082 385.804464,83.4022092 C385.804464,83.4022092 393.257386,62.8161816 403.559955,62.8161816 L403.559955,62.8161816 Z M140.915684,62.8161816 C145.135354,62.8161816 145.261396,66.2854909 142.280227,72.8574789 C139.748426,78.4499618 135.945243,83.5773162 127.686747,83.8180885 L124.305532,83.8180885 C123.850684,83.7633675 123.373916,83.6977024 122.891668,83.6101488 C122.891668,83.6101488 130.607635,62.8161816 140.915684,62.8161816 L140.915684,62.8161816 Z M437.180306,105.597033 C434.571784,105.597033 433.207242,103.982765 433.207242,100.633841 C433.207242,91.4571354 443.515291,63.1882842 454.563152,63.1882842 C460.52549,63.1882842 460.52549,71.3745408 460.52549,71.3745408 L450.962733,94.9319168 C450.962733,94.9319168 444.381145,105.597033 437.180306,105.597033 L437.180306,105.597033 Z M470.263609,46.6625525 L464.871202,60.457708 C464.871202,60.457708 462.635324,50.4164107 451.834067,50.4164107 C434.144337,50.4164107 423.118396,76.6277536 419.627578,93.6021973 C417.83559,101.383519 402.014569,108.447996 392.88474,108.447996 C377.113041,108.447996 383.195941,91.5829936 383.195941,91.5829936 C401.45012,93.815609 411.884211,89.229992 417.846549,76.4526465 C425.293992,60.5835662 417.221819,50.4164107 404.431289,50.4164107 C381.705356,50.4164107 367.670846,80.7974912 367.670846,98.1549817 L367.681806,98.9593798 C367.385882,103.008731 357.680642,108.447996 353.745937,108.447996 C350.89081,108.447996 348.035683,106.713341 353.745937,92.5734431 L371.337026,49.1189766 C419.633059,39.3463593 450.929852,40.3313366 470.263609,46.6625525 L470.263609,46.6625525 Z M483.07058,52.6271377 C516.773133,76.3377324 485.816105,119.107639 465.326049,110.385117 C461.654389,108.551966 461.643428,106.21538 467.23312,92.5734431 L483.07058,52.6271377 L483.07058,52.6271377 Z M219.297411,45.2069748 C224.141811,45.2069748 228.114875,41.2397047 228.114875,36.5282295 C228.114875,31.6908961 224.141811,27.8494843 219.297411,27.8494843 C214.453011,27.8494843 210.605988,31.6908961 210.605988,36.5282295 C210.605988,41.2397047 214.453011,45.2069748 219.297411,45.2069748 L219.297411,45.2069748 Z" fill="#323232"></path>
    </g>
</svg>

<svg xmlns="http://www.w3.org/2000/svg" viewBox="0 0 512 173.559">
  <path fill="#323232" d="M21.548 97.805c4.089-6.085 9.278-15.076 11.985-21.96 15.07 6.233 31.9 10.288 47.584 12.783-7.842 9.428-20.78 17.626-34.02 17.626a42.629 42.629 0 0 1-25.549-8.45zM65.164 22.19c15.18 6.556 25.795 21.637 25.795 39.191 0 7.525-1.945 14.595-5.37 20.729-16.325-1.866-34.355-5.779-49.513-13.297C41.858 52.375 49.92 28.747 65.164 22.19zM33.66 21.163c4.521-1.626 9.448-2.463 14.534-2.463 1.792 0 3.562.11 5.293.322-13.93 7.76-22.2 27.444-28.94 42.87-20.019-15.022-12.39-33.38 9.113-40.73zm285.979 9.236c7.913-21.105 22.331-20.356 21.948-13.018-.46 6.233-10.177 11.65-21.948 13.018zM279.37 91.01c-3.003 6.205-11.387 10.796-16.966 14.413l20.731-51.088c.416-1.028-.148-1.855-1.255-1.855h-11.267c-1.107 0-2.34.827-2.757 1.85l-2.466 6.058c-1.024-5.062-6.104-9.97-13.524-9.97-17.526 0-28.628 27.086-31.895 44.022-1.068 5.943-12.072 14.009-16.199 14.009-2.482 0-4.839-2.233.625-15.875l15.63-38.343c.416-1.023-.143-1.85-1.25-1.85H207.51c-1.107 0-2.34.832-2.757 1.856 0 0-13.514 34.578-16.758 42.704-2.767 6.944-10.604 11.508-14.308 11.508-2.483 0-4.845-2.233.619-15.875l30.59-74.245c.41-1.023-.148-1.85-1.255-1.85h-11.267c-1.107 0-2.34.827-2.751 1.856l-29.187 70.929c-3.255 8.367-19.729 19.185-30.201 19.185-13.969 0-10.889-13.368-10.001-16.422h7.42c13.875.28 22.419-4.596 27.543-15.573 7.453-15.87-.62-26.037-13.41-26.037-16.588 0-28.546 16.181-33.796 31.673-.126.383-.252.75-.367 1.116-2.329-.076-4.833-.158-6.647-.246a56.624 56.624 0 0 0 4.241-21.577c0-31.431-25.531-56.91-57.025-56.91-9.103 0-17.701 2.13-25.335 5.91l.017.017c-26.678 12.695-33.369 41.528-1.913 59.443-4.39 9.128-10.44 16.225-16.495 24.214-.795 1.051-.943 2.167-.197 3.295 1.912 2.878 6.285 7.097 9.557 9.477l.016.011.987.706c9.382 6.764 20.906 10.747 33.363 10.747 20.906 0 39.188-11.228 49.118-27.973 2.093.18 5.26.312 8.433.405-.476 2.637-.717 5.15-.717 7.43 0 12.773 7.326 19.843 21.482 19.843 12.286 0 22.287-5.434 30.167-12.898-.158 9.363 5.289 12.898 12.418 12.898 6.39 0 12.396-3.371 18.008-8.821 1.299 6.331 6.1 8.82 12.078 8.82 7.195 0 13.903-4.267 20.117-10.97 1.168 6.265 5.316 10.97 12.079 10.97 8.696 0 14.16-8.558 14.16-8.558l-1.973 6.627c-16.511 14.605-43.665 20.947-44.652 39.985-1.101 21.346 31.527 26.556 43.715-3.667l14.04-33.86c5.053-3.684 11.201-7.656 17.268-12.942l-4.521 10.955c-.417 1.018.137 1.85 1.244 1.85h11.267c1.107 0 2.34-.832 2.762-1.856l18.249-44.537c5.463-6.2 11.426-9.051 14.653-9.051 1.99 0 3.48.99 3.48 2.725 0 1.86-8.198 22.32-8.198 22.32-8.944 21.95-3.228 30.01 7.826 30.01 5.792 0 11.206-2.616 16.297-7.005 1.803 4.98 6.297 7.005 12.035 7.005 7.425 0 14.308-3.99 20.517-10.118 3.009 6.583 9.601 10.118 19.613 10.118 11.892 0 21.641-5.1 29.406-12.192.779 6.9 4.954 12.192 12.528 12.192 10.308 0 18.134-10.047 18.134-10.047s.964 7.229 12.417 10.047c41.907 10.298 75.143-49.999 25.505-74.196l10.363-25.468c.41-1.023-.148-1.855-1.255-1.855h-11.273c-1.101 0-2.334.832-2.745 1.855l-8.32 20.532c-21.574-6.014-53.562-6.621-98.964 2.555l9.382-23.087c.41-1.023-.154-1.855-1.255-1.855h-11.273c-1.107 0-2.334.832-2.745 1.855l-9.568 24.214v.23h-.094l-.904 2.266c-3.896.925-7.88 1.915-11.952 2.97-1.069.28-2.285 1.298-2.707 2.315-.586 1.429-1.551 2.26-2.137 3.684-.417 1.023 1.112 1.641 2.186 1.39a614.232 614.232 0 0 1 11.152-2.715c-8.149 20.362-17.328 43.985-18.83 47.57-2.378 5-7.732 8.191-10.675 8.191-1.983 0-5.211-1.363.625-15.875l7.075-17.357c2.608-6.446 3.978-11.284 3.978-14.879 0-6.325-4.345-9.92-10.68-9.92-9.81 0-18.134 8.186-18.134 8.186l8.401-19.71c17.821-.899 34.558-6.983 36.552-21.014-.033-21.335-33.582-27.278-44.438 2.939l-3.507 8.99c-10.905-.99-20.901-4.558-28.381-8.777-1.058-.59-2.286-.164-2.746.952l-1.178 1.872c-.46 1.116-.143 2.725.795 3.486 4.603 3.742 15.12 8.219 28.233 10.063h.022l-22.78 53.604zm-41.533 14.588c-2.735 0-4.1-1.614-4.1-4.963 0-9.177 10.309-37.446 21.362-37.446 5.957 0 5.957 8.187 5.957 8.187l-9.563 23.557s-6.582 10.665-13.656 10.665zm-10.703 46.786c-6.434 11.164-16.588 10.578-17.536 5.67-1.672-8.668 10.264-16.253 28.962-27.92-3.59 8.253-6.428 13.583-11.426 22.25zM403.56 62.816c4.225 0 4.351 3.47 1.37 10.041-2.981 6.572-7.453 12.526-19.126 10.545 0 0 7.453-20.586 17.756-20.586zm-262.644 0c4.22 0 4.345 3.47 1.364 10.041-2.532 5.593-6.335 10.72-14.593 10.961h-3.381c-.455-.055-.932-.12-1.414-.208 0 0 7.716-20.794 18.024-20.794zm296.264 42.781c-2.608 0-3.973-1.614-3.973-4.963 0-9.177 10.308-37.446 21.356-37.446 5.962 0 5.962 8.187 5.962 8.187l-9.562 23.557s-6.582 10.665-13.783 10.665zm33.084-58.934-5.393 13.795s-2.236-10.042-13.037-10.042c-17.69 0-28.716 26.212-32.206 43.186-1.792 7.782-17.613 14.846-26.743 14.846-15.772 0-9.69-16.865-9.69-16.865 18.255 2.233 28.69-2.353 34.652-15.13 7.447-15.87-.625-26.037-13.416-26.037-22.726 0-36.76 30.381-36.76 47.739l.01.804c-.295 4.05-10 9.489-13.935 9.489-2.855 0-5.71-1.735 0-15.875l17.591-43.454c48.296-9.773 79.593-8.788 98.927-2.456zm12.807 5.964c33.702 23.71 2.745 66.48-17.745 57.758-3.672-1.833-3.683-4.17 1.907-17.812zm-263.774-7.42c4.845 0 8.818-3.967 8.818-8.679 0-4.837-3.973-8.679-8.818-8.679-4.844 0-8.691 3.842-8.691 8.68 0 4.71 3.847 8.678 8.691 8.678z"/>
</svg>
